!!!OTL: 118. Bas Maedchen aus der Fremde.
!!!COM: G. C. Grosheim
!!!ODT: 1800
!!!ARE: Europa, Mitteleuropa, Deutschland
!!!SCT: B0118
!!!TXL: @@DE
!!!YEM: Copyright 1995, estate of Helmut Schaffrath.
**kern	**text
*ICvox	*
*Ivox	*
*M2/4	*
*clefG2	*
*k[f#]	*
*G:	*
!LO:TX:a:t=Gemüthilich.	!
{16d	Jn
16d	ei-
16d	-nem
=1	=1
8g	Thal
8g	bei
8b	ar-
8b	-men
=2	=2
4dd	Hir-
16b}	-ten
{16d	er-
16d	-ſchien
16d	mit
=3	=3
8g	je-
8b	-dem
8dd	jun-
16bL	-gen
16gJ	.
=4	=4
4d	Jahr,
16r}	.
{16d	So-
16d	-bald
16d	die
=5	=5
8g	er-
8g	-ſten
8b	Ler-
8b	-chen
=6	=6
4dd	ſchwirrten,
16b}	.
{16d	ein
16d	Mädchen
16d	.
=7	=7
8g	ſchön
8b	und
8dd	wun-
16bL	-der-
16gJ	.
=8	=8
4d	-bar.
16r}	.
{16dd	2._Sie
16dd	war
16dd	nicht
=9	=9
(16ddqq	.
8b)	in
16bL	dem
16aJ	.
16gL	Thal
16f#J	.
16eL	ge-
16f#J	.
=10	=10
(16gL	-bo-
16bJ)	.
8.d}	-ren,
{16dd	man
16dd	wußte
16dd	.
=11	=11
8.cc	nicht,
16a	wo-
(16ccqq	.
8b)	-her
16aL	ſie
16gJ	.
=12	=12
[4dd	kam;
16ddL]	.
{16cc#	.
16ccJ	.
16a	und
=13	=13
16g	ſchnell
16g	war
16g	ih-
16g	-re
8.b	Spur
16dd	ver-
=14	=14
16ddL	-lo-
16eJ	.
8.e}	-ren,
{16e	ſo-
16cc	-bald
16a	das
=15	=15
16gL	Mäd-
16f#J	.
16gL	-chen
16aJ	.
8b	Ab-
8a	-ſchied
=16	=16
4g	nahm.
16r}	.
==	==
!!!AGN: Ballade, Romanze
!!!GTL: Balladen und Romanzen
!!!ONB: ESAC (Essen Associative Code) Database: BOEHME
!!!AMT: simple duple
!!!AIN: vox
!!!EED: Helmut Schaffrath
!!!EEV: 1.0
!!@@COMMENT:"Gedicht von Friedrich v. Schiller, 1796. Erſchien ʒuerſt in Schiller's Muſenalmanach 1797.
!!S. 17. Die bekannte Melodie von Georg Chriſtoph Grosheim: Sammlung teutſcher Gedichte mit
!!Muſik von Grosheim, 5. Theil. Caſſel 1800."
!!@@END:
!!Text: F. v. Schiller
!!!URL-scan: https://archive.org/details/BoehmeVtLieder1895/page/n125/mode/2up
!!!ENC: Anna Maria Matuszewska
!!!EEV: 2024/18/06
*-	*-
